MODULE MainModule
   PROC main()
        MoveAbsJ [[-6,35.1,53.6,-5.7,-95.3,3.5],[9E9,9E9,9E9,9E9,9E9,9E9]],v150,fine,tool0;
        Set DO10_6;
        MoveAbsJ [[-4.5,58.5,42.3,-4.4,-107.4,2.5],[9E9,9E9,9E9,9E9,9E9,9E9]],v150,fine,tool0;
        MoveAbsJ [[-4.6,56.1,43.8,-4.6,-106.5,2.6],[9E9,9E9,9E9,9E9,9E9,9E9]],v600,fine,tool0;
        MoveAbsJ [[-6.2,59.1,54,-7,-119.6,0.6],[9E9,9E9,9E9,9E9,9E9,9E9]],v600,fine,tool0;
        MoveAbsJ [[-4.6,56.1,43.8,-4.6,-106.5,2.6],[9E9,9E9,9E9,9E9,9E9,9E9]],v600,fine,tool0;
        MoveAbsJ [[-6.2,59.1,54,-7,-119.6,0.6],[9E9,9E9,9E9,9E9,9E9,9E9]],v600,fine,tool0;
        MoveAbsJ [[-4.6,56.1,43.8,-4.6,-106.5,2.6],[9E9,9E9,9E9,9E9,9E9,9E9]],v600,fine,tool0;
        MoveAbsJ [[-6.2,59.1,54,-7,-119.6,0.6],[9E9,9E9,9E9,9E9,9E9,9E9]],v600,fine,tool0;
        MoveAbsJ [[-4.6,56.1,43.8,-4.6,-106.5,2.6],[9E9,9E9,9E9,9E9,9E9,9E9]],v600,fine,tool0;
        MoveAbsJ [[-6.2,59.1,54,-7,-119.6,0.6],[9E9,9E9,9E9,9E9,9E9,9E9]],v600,fine,tool0;
        MoveAbsJ [[-4.9,58.2,46,-4.9,-110.8,2.1],[9E9,9E9,9E9,9E9,9E9,9E9]],v300,fine,tool0;
        Reset DO10_6;
        MoveAbsJ [[-4.5,58.5,42.3,-4.4,-107.4,2.5],[9E9,9E9,9E9,9E9,9E9,9E9]],v300,fine,tool0;
        MoveAbsJ [[-6,35.1,53.6,-5.7,-95.3,3.5],[9E9,9E9,9E9,9E9,9E9,9E9]],v150,fine,tool0;
        MoveAbsJ [[-6.000013827,35.099966484,53.599970983,-5.700013136,-95.300010734,3.500027347],[9E9,9E9,9E9,9E9,9E9,9E9]],vmax,fine,tool0;
    ENDPROC
ENDMODULE